src/icons/folder-active.svg

<svg width="16" height="16" viewBox="0 0 16 16" fill="none" xmlns="http://www.w3.org/2000/svg">
<path fill-rule="evenodd" clip-rule="evenodd" d="M7.70996 3H14.5L15.01 3.5V8.00717C14.6995 7.77276 14.3609 7.57372 14 7.41604V5.98999H7.68994L6.82996 6.84998L6.47998 7H1.98999V7.48999V11.49V13H7.10002C7.17062 13.3478 7.27732 13.6825 7.41604 14H1.51001L1.01001 13.5V6.5V2.5L1.51001 2H6.51001L6.85999 2.15002L7.70996 3ZM7.48999 5H13.99L14 4.01001H7.5L7.14001 3.85999L6.29004 3.01001H2V6.01001H6.28003L7.14001 5.15002L7.48999 5Z" fill="#C5C5C5"/>
<path fill-rule="evenodd" clip-rule="evenodd" d="M9.77772 8.67412C10.4355 8.2346 11.2089 8 12 8C13.0605 8.0013 14.0771 8.42315 14.827 9.17301C15.5769 9.92287 15.9987 10.9395 16 12C16 12.7911 15.7654 13.5645 15.3259 14.2223C14.8864 14.8801 14.2616 15.3928 13.5307 15.6955C12.7998 15.9983 11.9956 16.0775 11.2196 15.9231C10.4437 15.7688 9.73098 15.3878 9.17157 14.8284C8.61216 14.269 8.2312 13.5563 8.07686 12.7804C7.92252 12.0044 8.00173 11.2002 8.30448 10.4693C8.60723 9.73836 9.11992 9.11365 9.77772 8.67412ZM11.9087 13.6637L14.295 10.4818L13.495 9.88184L11.4182 12.651L10.1165 11.6096L9.49179 12.3905L11.1963 13.7541L11.9087 13.6637Z" fill="#369432"/>
</svg>

<svg width="16" height="16" xmlns="http://www.w3.org/2000/svg"><path fill-rule="evenodd" clip-rule="evenodd" d="M7.71 3h6.79l.51.5v4.507A4.997 4.997 0 0 0 14 7.416V5.99H7.69l-.86.86-.35.15H1.99v6H7.1c.07.348.177.682.316 1H1.51l-.5-.5v-11l.5-.5h5l.35.15.85.85zm-.22 2h6.5l.01-.99H7.5l-.36-.15-.85-.85H2v3h4.28l.86-.86.35-.15z"/><path fill-rule="evenodd" clip-rule="evenodd" d="M9.778 8.674a4 4 0 1 1 4.444 6.652 4 4 0 0 1-4.444-6.652zm2.13 4.99l2.387-3.182-.8-.6-2.077 2.769-1.301-1.041-.625.78 1.704 1.364.713-.09z"/></svg>
